X: 3343
T: BLUE BELL
%R: hornpipe, shottish
B: James Kerr "Merry Melodies" v.3 p.37 #343
Z: 2016 John Chambers <jc:trillian.mit.edu>
M: C
L: 1/8
K: G
d2 |\
g>fg>f a>gf>e | d>Bc>d e>fa>g |\
B>GB>d c>AF>A | G>GA>B c>de>f |\
g>fg>f a>gf>e |
d>Bc>d e>fa>g |\
B>GB>d c>AF>A | G>Bd>B g2 :|\
|: d2 |\
B>GA>B c>de>f | g>fe>d ^c>ba>g |
f>af>d e>ge>^c | d>^cd>e f>de>f |\
g>fg>f a>gf>e | d>Bc>d e>fa>g |\
B>GB>d c>AF>A | G>Bd>B g2 :|

%%sep 1 1 500
%%sep 1 1 500

